Yaru++/mimetypes/16/application-x-virtualbox-ovf.svg

<svg height="16" width="16" xmlns="http://www.w3.org/2000/svg" xmlns:xlink="http://www.w3.org/1999/xlink"><linearGradient id="a" gradientUnits="userSpaceOnUse" x1="328" x2="328" y1="237" y2="251"><stop offset="0" stop-color="#fff"/><stop offset=".125" stop-color="#fff" stop-opacity=".098039"/><stop offset=".92500001" stop-color="#fff" stop-opacity=".098039"/><stop offset="1" stop-color="#fff" stop-opacity=".498039"/></linearGradient><clipPath id="b"><path d="m325.09646 237c-2.80769 0-3.10979.28839-3.09603 3.10176v3.89824 3.89824c-.0138 2.81337.28834 3.10176 3.09603 3.10176h5.8075c2.8077 0 3.09604-.28835 3.09604-3.10176v-3.89824-3.89824c0-2.8134-.28835-3.10176-3.09604-3.10176z"/></clipPath><linearGradient id="c" gradientTransform="matrix(0 -.03604403 -.03604301 0 19.564821 16.90909)" gradientUnits="userSpaceOnUse" x1="459.03448" x2="35.310345" y1="419.23337" y2="207.36522"><stop offset="0" stop-color="#d37e00"/><stop offset="1" stop-color="#ffaa2d"/></linearGradient><path d="m10.90435.5c.71048 0 1.27344.0154 1.751951.0957.47851.0803.89671.23728 1.20703.54688.31032.30959.46726.7261.54688 1.20508.0796.47897.0933 1.04352.0898 1.75586v3.89648 3.89844c.003.71121-.0103 1.27546-.0898 1.7539-.0796.47898-.23655.89549-.54688 1.20508-.31033.3096-.72851.46655-1.20703.54688-.478521.0803-1.041471.0957-1.751951.0957h-5.8086002c-.71048 0-1.27236-.0153-1.75-.0957-.47763-.0804-.89584-.23713-1.20508-.54688-.30921-.30975-.46469-.72681-.54492-1.20508-.0802-.47826-.0957-1.04201-.0957-1.7539v-3.89844-3.89844c0-.71189.0155-1.27564.0957-1.7539.0802-.47827.2357-.89533.54492-1.20508.30924-.30975.72745-.4665 1.20508-.54688.47764-.0804 1.03952-.0957 1.75-.0957z" fill="url(#c)"/><path d="m1.5004998 6.5h3l1.5 4.5 1.48865-5.74769 1.06533 2.87269 1.06822-2.87269 1.3778002 4.24769h3.500001" fill="none" stroke="#fff"/><path d="m8.0004998 1v14h2.9043002c2.807701 0 3.095701-.28815 3.095701-3.10156v-3.89844-3.89844c0-2.8134-.28801-3.10156-3.095701-3.10156z" fill="#fff" opacity=".08"/><path d="m2.0004998 8v3.89844c-.0138 2.81337.28801 3.10156 3.0957 3.10156h5.8086002c2.807701 0 3.095701-.28815 3.095701-3.10156v-3.89844z" fill="#fff" opacity=".08"/><g fill="none"><path d="m5.0961998.5c-.71048 0-1.27344.0154-1.75195.0957s-.89671.23728-1.20703.54688c-.31032.30959-.46726.7261-.54688 1.20508-.0796.47897-.0933 1.04352-.0898 1.75586v3.89648 3.89844c-.003.71121.0103 1.27546.0898 1.7539.0796.47898.23655.89549.54688 1.20508.31033.3096.72851.46655 1.20703.54688.47852.0803 1.04147.0957 1.75195.0957h5.8086002c.71048 0 1.27236-.0153 1.750001-.0957.47763-.0804.89584-.23713 1.20508-.54688.30921-.30975.46469-.72681.54492-1.20508.0802-.47826.0957-1.04201.0957-1.7539v-3.89844-3.89844c0-.71189-.0155-1.27564-.0957-1.7539-.0802-.47827-.2357-.89533-.54492-1.20508-.30924-.30975-.72745-.4665-1.20508-.54688-.477641-.0804-1.039521-.0957-1.750001-.0957z" opacity=".4" stroke="#000"/><path clip-path="url(#b)" d="m325.09646 237c-2.80769 0-3.10979.28839-3.09603 3.10176v3.89824 3.89824c-.0138 2.81337.28834 3.10176 3.09603 3.10176h5.8075c2.8077 0 3.09604-.28835 3.09604-3.10176v-3.89824-3.89824c0-2.8134-.28835-3.10176-3.09604-3.10176z" opacity=".4" stroke="url(#a)" stroke-width="2" transform="translate(-319.88018 -236)"/></g></svg>

<?xml version="1.0" encoding="UTF-8" standalone="no"?>
<svg
   xmlns:dc="http://purl.org/dc/elements/1.1/"
   xmlns:cc="http://creativecommons.org/ns#"
   xmlns:rdf="http://www.w3.org/1999/02/22-rdf-syntax-ns#"
   xmlns:svg="http://www.w3.org/2000/svg"
   xmlns="http://www.w3.org/2000/svg"
   xmlns:xlink="http://www.w3.org/1999/xlink"
   xmlns:sodipodi="http://sodipodi.sourceforge.net/DTD/sodipodi-0.dtd"
   xmlns:inkscape="http://www.inkscape.org/namespaces/inkscape"
   height="16"
   width="16"
   version="1.1"
   id="svg35"
   sodipodi:docname="application-x-virtualbox-ovf.svg"
   inkscape:version="0.92.5 (2060ec1f9f, 2020-04-08)">
  <metadata
     id="metadata41">
    <rdf:RDF>
      <cc:Work
         rdf:about="">
        <dc:format>image/svg+xml</dc:format>
        <dc:type
           rdf:resource="http://purl.org/dc/dcmitype/StillImage" />
        <dc:title></dc:title>
      </cc:Work>
    </rdf:RDF>
  </metadata>
  <defs
     id="defs39">
    <clipPath
       clipPathUnits="userSpaceOnUse"
       id="clipPath983">
      <path
         sodipodi:nodetypes="scccssscsss"
         inkscape:connector-curvature="0"
         id="path985"
         d="m 325.09646,237 c -2.80769,0 -3.10979,0.28839 -3.09603,3.10176 V 244 v 3.89824 c -0.0138,2.81337 0.28834,3.10176 3.09603,3.10176 h 5.8075 C 333.71166,251 334,250.71165 334,247.89824 V 244 240.10176 C 334,237.28836 333.71165,237 330.90396,237 Z"
         style="color:#000000;display:inline;overflow:visible;visibility:visible;opacity:1;fill:#46a926;fill-opacity:1;fill-rule:nonzero;stroke:none;stroke-width:2;stroke-miterlimit:4;stroke-dasharray:none;stroke-opacity:1;marker:none;enable-background:accumulate" />
    </clipPath>
    <linearGradient
       inkscape:collect="always"
       id="linearGradient927">
      <stop
         style="stop-color:#ffffff;stop-opacity:1;"
         offset="0"
         id="stop923" />
      <stop
         id="stop933"
         offset="0.125"
         style="stop-color:#ffffff;stop-opacity:0.09803922" />
      <stop
         id="stop931"
         offset="0.92500001"
         style="stop-color:#ffffff;stop-opacity:0.09803922" />
      <stop
         style="stop-color:#ffffff;stop-opacity:0.49803922"
         offset="1"
         id="stop925" />
    </linearGradient>
    <clipPath
       clipPathUnits="userSpaceOnUse"
       id="clipPath983-3">
      <path
         sodipodi:nodetypes="scccssscsss"
         inkscape:connector-curvature="0"
         id="path985-6"
         d="m 325.09646,237 c -2.80769,0 -3.10979,0.28839 -3.09603,3.10176 V 244 v 3.89824 c -0.0138,2.81337 0.28834,3.10176 3.09603,3.10176 h 5.8075 C 333.71166,251 334,250.71165 334,247.89824 V 244 240.10176 C 334,237.28836 333.71165,237 330.90396,237 Z"
         style="color:#000000;display:inline;overflow:visible;visibility:visible;opacity:1;fill:#46a926;fill-opacity:1;fill-rule:nonzero;stroke:none;stroke-width:2;stroke-miterlimit:4;stroke-dasharray:none;stroke-opacity:1;marker:none;enable-background:accumulate" />
    </clipPath>
    <linearGradient
       inkscape:collect="always"
       xlink:href="#linearGradient927"
       id="linearGradient993-7"
       x1="328"
       y1="237"
       x2="328"
       y2="251"
       gradientUnits="userSpaceOnUse" />
    <clipPath
       clipPathUnits="userSpaceOnUse"
       id="clipPath983-2">
      <path
         sodipodi:nodetypes="scccssscsss"
         inkscape:connector-curvature="0"
         id="path985-9"
         d="m 325.09646,237 c -2.80769,0 -3.10979,0.28839 -3.09603,3.10176 V 244 v 3.89824 c -0.0138,2.81337 0.28834,3.10176 3.09603,3.10176 h 5.8075 C 333.71166,251 334,250.71165 334,247.89824 V 244 240.10176 C 334,237.28836 333.71165,237 330.90396,237 Z"
         style="color:#000000;display:inline;overflow:visible;visibility:visible;opacity:1;fill:#46a926;fill-opacity:1;fill-rule:nonzero;stroke:none;stroke-width:2;stroke-miterlimit:4;stroke-dasharray:none;stroke-opacity:1;marker:none;enable-background:accumulate" />
    </clipPath>
    <linearGradient
       inkscape:collect="always"
       xlink:href="#linearGradient4338-3-2"
       id="linearGradient920-1"
       gradientUnits="userSpaceOnUse"
       gradientTransform="matrix(0,-0.03604403,-0.03604301,0,19.564821,16.90909)"
       x1="459.03448"
       y1="419.23337"
       x2="35.310345"
       y2="207.36522" />
    <linearGradient
       inkscape:collect="always"
       id="linearGradient4338-3-2">
      <stop
         style="stop-color:#d37e00;stop-opacity:1"
         offset="0"
         id="stop4340-0-7" />
      <stop
         style="stop-color:#ffaa2d;stop-opacity:1"
         offset="1"
         id="stop4342-7-0" />
    </linearGradient>
  </defs>
  <sodipodi:namedview
     pagecolor="#ffffff"
     bordercolor="#666666"
     borderopacity="1"
     objecttolerance="10"
     gridtolerance="10"
     guidetolerance="10"
     inkscape:pageopacity="0"
     inkscape:pageshadow="2"
     inkscape:window-width="960"
     inkscape:window-height="1016"
     id="namedview37"
     showgrid="false"
     inkscape:zoom="30.141781"
     inkscape:cx="8.8449676"
     inkscape:cy="9.5939237"
     inkscape:window-x="0"
     inkscape:window-y="27"
     inkscape:window-maximized="0"
     inkscape:current-layer="svg35" />
  <linearGradient
     id="a"
     gradientUnits="userSpaceOnUse"
     x1="328"
     x2="328"
     y1="237"
     y2="251">
    <stop
       offset="0"
       stop-color="#fff"
       id="stop2" />
    <stop
       offset=".125"
       stop-color="#fff"
       stop-opacity=".098039"
       id="stop4" />
    <stop
       offset=".92500001"
       stop-color="#fff"
       stop-opacity=".098039"
       id="stop6" />
    <stop
       offset="1"
       stop-color="#fff"
       stop-opacity=".498039"
       id="stop8" />
  </linearGradient>
  <clipPath
     id="b">
    <path
       d="m325.09646 237c-2.80769 0-3.10979.28839-3.09603 3.10176v3.89824 3.89824c-.0138 2.81337.28834 3.10176 3.09603 3.10176h5.8075c2.8077 0 3.09604-.28835 3.09604-3.10176v-3.89824-3.89824c0-2.8134-.28835-3.10176-3.09604-3.10176z"
       id="path11" />
  </clipPath>
  <linearGradient
     id="c"
     gradientTransform="matrix(0 -.03604403 .03604301 0 -3.564212 16.90909)"
     gradientUnits="userSpaceOnUse"
     x1="459.03448"
     x2="35.310345"
     y1="419.23337"
     y2="207.36522">
    <stop
       offset="0"
       stop-color="#f2f2f2"
       id="stop14" />
    <stop
       offset="1"
       stop-color="#f9f9f9"
       id="stop16" />
  </linearGradient>
  <path
     style="color:#000000;display:inline;overflow:visible;visibility:visible;fill:url(#linearGradient920-1);fill-opacity:1;fill-rule:nonzero;stroke:none;stroke-width:1;marker:none;enable-background:accumulate"
     d="m 10.90435,0.5 c 0.71048,0 1.27344,0.0154 1.751951,0.0957 0.47851,0.0803 0.89671,0.23728 1.20703,0.54688 0.31032,0.30959 0.46726,0.7261 0.54688,1.20508 0.0796,0.47897 0.0933,1.04352 0.0898,1.75586 V 8 11.89844 c 0.003,0.71121 -0.0103,1.27546 -0.0898,1.7539 -0.0796,0.47898 -0.23655,0.89549 -0.54688,1.20508 -0.31033,0.3096 -0.72851,0.46655 -1.20703,0.54688 C 12.17778,15.4846 11.61483,15.5 10.90435,15.5 H 5.0957498 c -0.71048,0 -1.27236,-0.0153 -1.75,-0.0957 -0.47763,-0.0804 -0.89584,-0.23713 -1.20508,-0.54688 -0.30921,-0.30975 -0.46469,-0.72681 -0.54492,-1.20508 -0.0802,-0.47826 -0.0957,-1.04201 -0.0957,-1.7539 V 8 4.10156 c 0,-0.71189 0.0155,-1.27564 0.0957,-1.7539 0.0802,-0.47827 0.2357,-0.89533 0.54492,-1.20508 0.30924,-0.30975 0.72745,-0.4665 1.20508,-0.54688 0.47764,-0.0804 1.03952,-0.0957 1.75,-0.0957 z"
     id="path918-9"
     inkscape:connector-curvature="0" />
  <path
     style="display:inline;fill:none;stroke:#ffffff;stroke-width:1;stroke-linecap:butt;stroke-linejoin:miter;stroke-miterlimit:4;stroke-dasharray:none;stroke-opacity:1;enable-background:new"
     d="m 1.5004998,6.5 h 3 l 1.5,4.5 1.48865,-5.74769 1.06533,2.87269 1.06822,-2.87269 L 11.0005,9.5 h 3.500001"
     id="path990-3"
     inkscape:connector-curvature="0"
     sodipodi:nodetypes="cccccccc" />
  <path
     style="color:#000000;display:inline;overflow:visible;visibility:visible;opacity:0.07999998;fill:#ffffff;fill-opacity:1;fill-rule:nonzero;stroke:none;stroke-width:1;marker:none;enable-background:accumulate"
     d="M 8.0004998,1 V 15 H 10.9048 c 2.807701,0 3.095701,-0.28815 3.095701,-3.10156 V 8 4.10156 C 14.000501,1.28816 13.712491,1 10.9048,1 Z"
     id="path1009-6"
     inkscape:connector-curvature="0" />
  <path
     style="color:#000000;display:inline;overflow:visible;visibility:visible;opacity:0.07999998;fill:#ffffff;fill-opacity:1;fill-rule:nonzero;stroke:none;stroke-width:1;marker:none;enable-background:accumulate"
     d="m 2.0004998,8 v 3.89844 C 1.9866998,14.71181 2.2885098,15 5.0961998,15 H 10.9048 c 2.807701,0 3.095701,-0.28815 3.095701,-3.10156 V 8 Z"
     id="path1016-0"
     inkscape:connector-curvature="0" />
  <path
     id="path1087-6"
     d="m 5.0961998,0.5 c -0.71048,0 -1.27344,0.0154 -1.75195,0.0957 -0.47851,0.0803 -0.89671,0.23728 -1.20703,0.54688 -0.31032,0.30959 -0.46726,0.7261 -0.54688,1.20508 -0.0796,0.47897 -0.0933,1.04352 -0.0898,1.75586 V 8 11.89844 c -0.003,0.71121 0.0103,1.27546 0.0898,1.7539 0.0796,0.47898 0.23655,0.89549 0.54688,1.20508 0.31033,0.3096 0.72851,0.46655 1.20703,0.54688 0.47852,0.0803 1.04147,0.0957 1.75195,0.0957 H 10.9048 c 0.71048,0 1.27236,-0.0153 1.750001,-0.0957 0.47763,-0.0804 0.89584,-0.23713 1.20508,-0.54688 0.30921,-0.30975 0.46469,-0.72681 0.54492,-1.20508 0.0802,-0.47826 0.0957,-1.04201 0.0957,-1.7539 V 8 4.10156 c 0,-0.71189 -0.0155,-1.27564 -0.0957,-1.7539 -0.0802,-0.47827 -0.2357,-0.89533 -0.54492,-1.20508 C 13.550641,0.83283 13.132431,0.67608 12.654801,0.5957 12.17716,0.5153 11.61528,0.5 10.9048,0.5 Z"
     style="color:#000000;display:inline;overflow:visible;visibility:visible;opacity:0.4;fill:none;fill-opacity:1;fill-rule:nonzero;stroke:#000000;stroke-width:1;stroke-opacity:1;marker:none;enable-background:accumulate"
     inkscape:connector-curvature="0" />
  <path
     transform="translate(-319.88018,-236)"
     style="color:#000000;display:inline;overflow:visible;visibility:visible;opacity:0.4;fill:none;fill-opacity:1;fill-rule:nonzero;stroke:url(#linearGradient993-7);stroke-width:2;stroke-miterlimit:4;stroke-dasharray:none;stroke-opacity:1;marker:none;enable-background:accumulate"
     d="m 325.09646,237 c -2.80769,0 -3.10979,0.28839 -3.09603,3.10176 V 244 v 3.89824 c -0.0138,2.81337 0.28834,3.10176 3.09603,3.10176 h 5.8075 C 333.71166,251 334,250.71165 334,247.89824 V 244 240.10176 C 334,237.28836 333.71165,237 330.90396,237 Z"
     id="path937-2"
     inkscape:connector-curvature="0"
     sodipodi:nodetypes="scccssscsss"
     clip-path="url(#clipPath983-2)" />
</svg>
